X: 8055
T: Connie The Soldier
R: jig
M: 6/8
K: Dmajor
~A3 ABd|ABG EAD|EFG EFG|~A3 FED|
~A3 ABd|ABG E2d|cBc ABG|FDC D3:|
|:~f3 dcd|~f2d dcd|fed e2d|cAG A3|
efg efg|fed e2d|cBc ABG|FDC D3:|

